dist/img/vk.svg

<svg width="32" height="32" fill="none" xmlns="http://www.w3.org/2000/svg"><path d="M0 15.36C0 8.065 0 4.48 2.305 2.305 4.61.13 8.065 0 15.36 0h1.28c7.295 0 10.88 0 13.055 2.305C32 4.48 32 8.065 32 15.36v1.28c0 7.295 0 10.88-2.305 13.055C27.52 32 23.935 32 16.64 32h-1.28c-7.295 0-10.88 0-13.055-2.305C0 27.52 0 23.935 0 16.64v-1.28z" fill="#07F"/><path d="M17.025 23.04c-7.295 0-11.395-4.99-11.65-13.31H9.09c.125 6.14 2.815 8.7 4.99 9.215V9.73h3.455v5.245c2.05-.255 4.355-2.685 5.12-5.245h3.455c-.51 3.2-2.94 5.63-4.735 6.655 1.665.765 4.48 2.945 5.505 6.655h-3.84c-.77-2.56-2.815-4.48-5.505-4.735v4.735h-.51z" fill="#fff"/></svg>

<svg width="32" height="32" viewBox="0 0 32 32" fill="none" xmlns="http://www.w3.org/2000/svg">
<path d="M0 15.36C0 8.065 0 4.48 2.305 2.305C4.61 0.129999 8.065 0 15.36 0H16.64C23.935 0 27.52 0 29.695 2.305C32 4.48 32 8.065 32 15.36V16.64C32 23.935 32 27.52 29.695 29.695C27.52 32 23.935 32 16.64 32H15.36C8.065 32 4.48 32 2.305 29.695C0 27.52 0 23.935 0 16.64V15.36Z" fill="#0077FF"/>
<path d="M17.025 23.04C9.72999 23.04 5.63 18.05 5.375 9.72998H9.09C9.215 15.8699 11.905 18.4299 14.08 18.945V9.72998H17.535V14.975C19.585 14.72 21.89 12.29 22.655 9.72998H26.1099C25.6 12.93 23.17 15.36 21.375 16.385C23.04 17.1499 25.855 19.33 26.88 23.04H23.04C22.2699 20.48 20.225 18.56 17.535 18.305V23.04H17.025Z" fill="white"/>
</svg>
